X: 226
T: Wild Rose of the Mountain [1]
B: canberra pickers and fiddlers
B: tunes
M:4/4
L:1/8
R: reel
Q: 1/4=220
K:Amixolydian
V:1 
(3ef^g \ 
| "A"a2a2 gagf | efed c2(3ef^g | a2a2 gagf |[M:2/4]edc2 |[M:4/4] "E"e8- | e6 a2- |
  "A"a2a2 gagf | efed c2A2 | EFAB cdcB |[M:2/4] "E"A^G3 |[M:4/4] "A"A4- | A6 :|
|: ""A,2- \
| "A"A,B,CE A2AB | cdef gagf | efed cdcB |[M:2/4]AG3 |[M:4/4] "E"E8- | E6 A,2 |
  "A"A,B,CE A2AB | cdef gagf | efed cdcB |[M:2/4]"E"A^G3 |[M:4/4] "A"A8- | A6 :|
% abcbook-tune_id 63ae8f1c0d2cb65dcec981b4
% abcbook-tune_composer_id 
% abcbook-link-0 https://www.youtube.com/watch?v=cYweRtJYBoY
% abcbook-link-title-0 Wild Rose of the Mountain
% abcbook-link-start-at-0 10
% abcbook-boost 0
% abcbook-difficulty 0
% abcbook-tags canberra pickers and fiddlers,old time tunes,steve ryan,© free
% abcbook-tablature 
% abcbook-transpose 
% abcbook-tuning GDAE
% abcbook-lastupdated 1677375995058
% abcbook-src-url https://tunebook.net/scrape/tunes.abc
% abcbook-soundfonts 
% abcbook-repeats 1


